X:381
T:Young Sir Solomon. (p)1698.PLFD.381
M:6/4
L:1/4
Q:3/4=80
S:Playford, Dancing Master,9th Ed,2nd Supp.,1698.
O:England
H:1698.
Z:Chris Partington.
K:C
c/d/|e>fgagf|g3f3|e>dcB2A|abag>fe|f>gf/e/e2d|d3-d2:|
|:d/e/|f>gfe2a|a>b^ga2"_Bass"D/E/|F>GFEDC|D>EFB,2"_Treble"g/f/|
e>dcd2"_Bass"G|A.GFG2"_Treble"G|A>Bcd>cB|c3G3|E>DCC2B,|C3-C2:|
